X: 305789
M: 2/4
L: 1/16
K: C
cd |\
e2ee e2e2 | g4 fedc | cBAG ^FGAB | cBcd c2cd |\
e2ee e2e2 | g4 fedc | cBAG AcBd | c2c2c2 H|]
d^cdc d2=ce | d^cdc d2=ce | d^cdc ed=cB | A2A2 A2Bc |\
d^cdc d2=ce | d^cdc d2=ce | d2g2 fgaf | g2g2"^D.C."g2 |]
f2 |\
g3a g2f2 | e3d c2d2 | e2ef d2de | cded c2e2 |\
g3a g2f2 | e3d c2e2 | d2de dcBA | "^D.C."G6 |]



